X:420
T:Great Chief of Ormidale, The 
C:Joe Buchanan's Scottish Tome - Page 383.0
I:383 0
Z:Carl Allison
R:March
L:1/8
M:2/4
K:A
A/B/ | "A"c2         "Ea"c/>B/A/>B/ | "A"cA              "D"Aa/>f/           | "A"e/>A/e/>c/      "F#m"A/>c/e/>c/    | "Bm"fB   "E7"BA/B/  |
"A"c>d        "Ea"e/>c/B/<d/ | "A"cA              "D"Aa/f/            | "A"e/>A/c/<e/      "E7"d/>B/e/>d/     | "A"cA    A         :|
f/g/ | "A"ae/f/      "Ea"e/>c/A/>B/ | "A"cA              "D"Aa/f/            | "A"e/>A/e/>c/      "F#m"A/>c/e/>c/    | "B7"fB   "E7"Bf/g/  |
"A"ae/f/      "Ea"e/>c/A/>B/ | "A"cA              "D"Aa/f/            | "A"e/>A/c/<e/      "Bm"d/>B/"A7"e/>d/ | "A"c"D"A "A"Af/g/   |
"A"ae/f/      "Ea"e/>c/A/>B/ | "A"cA              "D"Aa/f/            | "A"e/>A/e/>c/      "F#m"A/>c/e/>c/    | "B7"fB   "E7"BA/B/  |
"A"cd         "Ea"e/>c/B/<d/ | "A"cA              "D"Aa/f/            | "A"e/>A/c/<e/      "Bm"d/>B/"A7"e/>d/ | "A"cA    A          |]
e/a/ | "A"A/>B/c/>d/ "Ea"e/>f/d/>e/ | "Aa"c/>d/"E7"B/>c/ "F#m"A/>B/"Ab/E7"c/>d/ | "A"e/>f/"E7"e/>d/      "A"c/<a/"F#m"e/>c/      | "Bm"fB   "E7"Be/a/  |
"A"A/>B/c/>d/ "Ea"e/>f/d/>e/ | "A"c/>d/"E7"B/>c/  "F#m"A/>B/"Ab/E7"c/>d/ | "A"e/>c/a/>c/      "F#m"B/>c/"E7"d/>e/    | "A"cA    Ae/a/      |
"A"A/>B/c/>d/ "Ea"e/>f/d/>e/ | "Aa"c/>d/"E7"B/>c/ "F#m"A/>B/"Ab/E7"c/>d/ | "A"e/>f/e/>d/      "A"c/<a/"F#m"e/>c/      | "Bm"fB   BA/B/      |
"A"c/<A/e/<c/ "Ea"fe/d/      | "A"c/>d/"E7"B/>c/  "F#m"A/>B/"E7"c/>d/ | "C#"e/>c/a/>c/     "D"B/>c/"Em"d/>e/      | "A"cA    A          |]
f/g/ | "A"a/>e/c/<e/ "E7"d/>f/B/>d/ | "A"cA              "D"Aa/f/            | "A"e/>A/e/>c/      "F#m"A/>c/e/>c/    | "Bm"fB   B"E7"f/g/  |
"A"a/>e/c/<e/ d/>f/B/>d/     | cA                 Aa/f/               | e/>A/c/<e/         d/>B/e/>d/         | cA       Af/g/      |
"A"a/>e/c/>e/ "E7"d/>f/B/>d/ | "A"cA              "D"Aa/f/            | "A"e/>A/e/>c/      "F#m"A/>c/e/>c/    | "Bm"fB   "E7"BA/B/  |
"A"c/>A/e/>A/ "E7"fe/d/      | "A"c/>d/"E7"B/>c/  "F#m"A/>B/"Ab"c/>d/ | "A"e/>A/"F#m"a/>c/ "Bm"c/>B/"E7"d/>e/ | "A"c"D"A "A"A       |]

